X: 12
T: The Mason's Apron
R: reel
M: 4/4
L: 1/8
K: Gmaj
|:d2|gGG2 GAGE|DEGB cBAG|cAA2 ABAG|ABcd edef|
gGG2 GAGE|DEGB cBAG|cBcd edeg|G2 BA G2:|
|:dc|BGdG eGdG|BGdG edcB|cAeA gAeA|cdef gedc|
BGdG eGdG|DEGB cBAG|c2cB cdeg|G2 BA G2:|
|:dc|Bddd eddd|Bddd edcB|ceee geee|ceee gfed|
Bddd eddd|DEGB cBAG|cBcd edeg|G2 BA G2:|
|:d2|gddd gddd|gdfd eddd|addd addd|adgd fdef|
gddd gddd|gdfd eddd|cBcd edeg|G2 BA G2:|
|dc|B2GB dGBd|GBdG BdBG|c2 Gc eGce|GceG cedc|
B2GB dGBd|GBdG BdBG|c2cB cdeg|G2 BA G2:|


Tune 74	Setting 12546

